X:1
T:Rimsky-Korsakov Harmonic Exercises, Suspensions
T:Rimsky-Korsakov Harmonic Exercises, Suspensions
T:"Practical Manual of Harmony" (1885)
%%score { ( 1 2 ) | ( 3 4 ) }
L:1/8
Q:1/2=70
M:4/4
K:C
V:1 treble nm="Piano" snm="Pno."
V:2 treble 
V:3 bass 
V:4 bass 
V:1
"""_C:""^Examples by Rimsky-Korsakov (\n""^suspensions""^):" (G4"" c4- |"" c4 !breath!B4) |] %2
[M:2/4]""""[Q:1/4=70]"_C:" (c4 |"" B2"" !breath!c2) |]"""_C:" (B2"" f2 |"" e2"" !breath!d2) |] %6
[M:3/4]"""_C:" (G2"""" A4 |"" !breath!G6) |][M:6/8]"_C:" (B3 c2 d |[M:3/8] !breath!e3) |] %10
[M:2/4]"""_C:" (A2"" B2- |"" B2 !breath!c2) |][M:4/4]""[Q:1/2=60]"_C:" (f4-"" f2 !breath!e2) |] %13
"""_C:" (e4-"" e2 !breath!d2) |]"""_C:" (d4-"" d2 !breath!c2) |]"""_C:" (A4"" !breath!c4) |] %16
[M:4/4]"^Preparation cannot\nbe shorter than the suspension.\n" z4 G2"^Bad:" d2- | d4 !breath!c4 |] %18
"^The suspension does not neutralize parallel fifths and octaves.\n""^Bad:" a8- | a4 !breath!g4 |] %20
 d8- | d4 !breath!c4 |] %22
"^With descending suspensions, the resolution tone should not be occupied.""^Bad:" c8- | %23
 c4 !breath!B4 |] c8 | !breath!d8 |][Q:1/4=80] d4- d2 !breath!c2 |]"^Good:" d4- d2 !breath!c2 |] %28
"^An exception to the previous rule: the tone of resolution can be occupied in the\nbass at a ninth distance, and this tone must be the root of a triad or seventh chord.\nFor incomplete triads, this exception is possible for the tenor.\n"[Q:1/2=80]"^Good:" d8- | %29
 d4 !breath!c4 |] A8- | A4 !breath!G4 |] d8- | d4 !breath!c4 |] %34
"^At the moment of suspension\nresolution, other voices can move:\n" d8- | d4 !breath!c4 |] d8- | %37
 d4 !breath!c4 |] %38
[M:3/4][Q:1/4=80]"^During preparation and suspension,\nother voices may have passing tones.\n" (d6- | %39
 d4 !breath!c2) |] %40
[M:4/4][Q:1/2=70]"^At the moment of suspension resolution, another voice may descend on the passing seventh." (c4 A4 | %41
 B4 A4 | A4 ^G4 | A8) |] %44
V:2
 (E4 G4 | G8) |][M:2/4] (G4 | G4) |] (G4 | G4) |][M:3/4] (E2 F4- | F4 E2) |][M:6/8] (G6 | %9
[M:3/8] G3) |][M:2/4] (F4 | E4) |][M:4/4] (A4 G4) |] (G4 F4) |] (G4 E4) |] (F4 G4) |] %16
[M:4/4] z4 G4 | G8 |] d8 | c8 |] B8 | G8 |] E8 | D8 |] G8 | G8 |] G8 |] G8 |] F8 | E8 |] F8 | F8 |] %32
 G4 F4 | E8 |] G4 F4 | E4 G4 |] G4 F4 | E8 |][M:3/4] (F6 | E2 F2 G2) |][M:4/4] (E8- | E4 ^D4 | E8 | %43
 E8) |] %44
V:3
 (C8 | D8) |][M:2/4] (E4- | ED C2) |] (D4- | DC- CB,) |][M:3/4] (C6 | C6) |][M:6/8] (D3 C2 B, | %9
[M:3/8] C3) |][M:2/4] (C2 F,2 | G,4) |][M:4/4] (C4 C4) |] (C4 A,4) |] (B,4 G,4) |] (C4 C4) |] %16
[M:4/4] z4 F4 | E8 |] F8 | E8 |] F8 | E8 |] G,8 | B,8 |] E8- | E4 D4 |] B,4 C4 |] B,4 G,2 C2 |] %28
 B,8 | G,8 |] C8 | B,8 |] B,8 | C8 |] B,8 | G,8 |] B,8 | G,4 A,4 |][M:3/4] (B,2 A,2 _A,2 | G,6) |] %40
[M:4/4] (A,8 | ^F,4 B,4 | B,8 | A,8) |] %44
V:4
 (C,4 E,4 | G,8) |][M:2/4] (C,2 E,2 | F,2 E,2) |] (G,,2 B,,2 | C,2 F,2) |][M:3/4] (C,2 F,,2 A,,2 | %7
 C,6) |][M:6/8]"" (G,,G,""F,-"" F,E,""D, |[M:3/8]"" C,3) |][M:2/4] (F,2 D,2 | C,4) |] %12
[M:4/4] (F,4 C,4) |] (C,4 F,4) |] (G,4 C,4) |] (F,4- F,2 E,2) |][M:4/4] z4 B,,4 | C,8 |] B,,8 | %19
 C,8 |] D,8 | C,8 |] C,8 | G,,8 |] C,8 | B,,8 |] F,4 E,4 |] F,4 E,4 |] G,,8 | C,8 |] F,,8 | G,,8 |] %32
 G,,8 | C,8 |] G,8 | C,4 E,4 |] G,,8 | C,4 A,,4 |][M:3/4] (G,,2 A,,2 B,,2 | C,2 D,2 E,2) |] %40
[M:4/4] (A,,4 C,4 | B,,8 | E,4 =D,4- | D,4 C,4) |] %44

